lib/preview/nrk-logo-preview-nrk-sapmi-with-bg.svg

<svg width="98" height="24" viewBox="0 0 98 24" fill="none" xmlns="http://www.w3.org/2000/svg">
<rect width="98" height="24" fill="#114F9D"/>
<path d="M6.00427 17.9998V6.00085H9.94146V17.9998H6.00427ZM15.2981 7.91054L17.5623 17.9998H13.2534L10.5498 6.00085H12.9664C13.5206 5.99365 14.0583 6.189 14.4788 6.55015C14.8999 6.89614 15.1892 7.37645 15.2981 7.91054ZM18.1538 17.9998V6.00085H22.091V17.9998H18.1538ZM25.0647 10.5639C24.6405 10.568 24.223 10.457 23.8568 10.2427C23.4955 10.0339 23.1954 9.73371 22.9865 9.37235C22.7721 9.00609 22.661 8.58852 22.6652 8.16407C22.6604 7.74222 22.7715 7.32714 22.9865 6.96418C23.1976 6.60675 23.4974 6.30985 23.8568 6.10228C24.2231 5.88826 24.6405 5.77727 25.0647 5.78114C25.4865 5.7766 25.9014 5.88768 26.2645 6.10228C26.6203 6.31167 26.9169 6.60832 27.1263 6.96418C27.3411 7.32724 27.4522 7.74225 27.4476 8.16407C27.4515 8.58848 27.3405 9.00598 27.1263 9.37235C26.9191 9.73213 26.6222 10.032 26.2645 10.2427C25.9014 10.4577 25.4862 10.5688 25.0642 10.5639H25.0647ZM28.0559 17.9998V6.00085H31.9934V17.9998H28.0559ZM36.978 12.558C36.9891 12.5696 37.0735 12.7076 37.2314 12.972C37.3893 13.2364 37.5949 13.5744 37.8482 13.986C38.1017 14.3975 38.3692 14.834 38.6506 15.2958C38.932 15.7575 39.1969 16.1941 39.4451 16.6055C39.6924 17.017 39.974 17.4817 40.29 17.9998H35.9641C35.6936 17.5604 35.4484 17.1632 35.2287 16.8083C35.0091 16.4534 34.7756 16.0703 34.5281 15.6591C34.2801 15.2483 34.0349 14.8483 33.7925 14.4592C33.5501 14.0701 33.3418 13.7294 33.1675 13.4368C32.9925 13.1441 32.8713 12.9469 32.8039 12.8453C32.6368 12.5932 32.5379 12.3021 32.517 12.0003C32.5337 11.7107 32.6269 11.4307 32.787 11.1889C32.8546 11.0762 32.9786 10.8762 33.1588 10.5889C33.339 10.3016 33.5503 9.96081 33.7925 9.56648C34.0347 9.17215 34.2799 8.76936 34.5281 8.35813C34.7763 7.9469 35.0098 7.56099 35.2287 7.20046C35.4488 6.84031 35.6939 6.44034 35.9641 6.00057H40.29L36.9439 11.4593C36.8404 11.6213 36.782 11.8081 36.7749 12.0003C36.786 12.2021 36.8565 12.3961 36.9774 12.558H36.978Z" fill="white"/>
<path d="M52.1522 12.3741C51.9084 12.1225 51.6256 11.9132 51.315 11.7544C50.9894 11.5873 50.6506 11.4481 50.3021 11.3384C49.9445 11.2252 49.5762 11.1289 49.197 11.0495C48.9065 10.9818 48.6358 10.914 48.385 10.8461C48.1546 10.7857 47.9303 10.7032 47.7153 10.5996C47.5305 10.5109 47.3588 10.3966 47.2049 10.26C47.06 10.1305 46.9479 9.96754 46.8781 9.78489C46.8009 9.5701 46.764 9.34254 46.7693 9.11396C46.7656 8.87728 46.8024 8.64174 46.8781 8.41785C46.9469 8.22033 47.0617 8.04263 47.213 7.89998C47.3698 7.75442 47.5478 7.63428 47.7407 7.54373C47.9612 7.44183 48.1952 7.37316 48.4352 7.33996C48.7209 7.2987 49.0092 7.27884 49.2978 7.28055C49.5605 7.28107 49.8231 7.29515 50.0844 7.32273C50.3489 7.35072 50.6117 7.3933 50.8716 7.45033C51.1239 7.50587 51.3727 7.57674 51.6166 7.66256C51.845 7.7422 52.0663 7.84153 52.278 7.95943L52.5124 6.46557C52.2744 6.33962 52.0248 6.23728 51.7673 6.15997C51.5048 6.08093 51.2398 6.0129 50.9721 5.95593C50.701 5.89912 50.4271 5.85671 50.1516 5.82888C49.8726 5.80058 49.588 5.78642 49.2978 5.78642C48.7057 5.77993 48.1152 5.84828 47.5398 5.98988C47.0499 6.10984 46.5869 6.32314 46.1755 6.61839C45.7964 6.89415 45.4913 7.26176 45.2881 7.68774C45.0714 8.16651 44.9655 8.68919 44.9784 9.21583C44.9688 9.62339 45.0341 10.0292 45.171 10.4125C45.2909 10.7339 45.4762 11.0262 45.7148 11.2702C45.951 11.5091 46.2221 11.7095 46.5185 11.8645C46.8329 12.0288 47.1607 12.1652 47.4982 12.2723C47.8498 12.3855 48.2098 12.4817 48.5781 12.5609C48.8795 12.6286 49.1585 12.6994 49.4152 12.7731C49.654 12.8398 49.8864 12.9279 50.1098 13.0363C50.302 13.1283 50.4798 13.2484 50.6375 13.3929C50.787 13.5353 50.904 13.7092 50.9805 13.9022C51.0694 14.1348 51.1121 14.3829 51.1063 14.6323C51.1107 14.8975 51.0711 15.1615 50.9891 15.4133C50.9156 15.6311 50.8019 15.8328 50.6542 16.0076C50.5057 16.1798 50.3232 16.3186 50.1185 16.4148C49.8872 16.5229 49.6419 16.5972 49.3901 16.6358C49.0828 16.6836 48.7721 16.7063 48.4612 16.7037C48.1589 16.7029 47.857 16.6831 47.5571 16.6443C47.2446 16.6046 46.9319 16.5508 46.6192 16.4827C46.3112 16.4162 46.0068 16.334 45.707 16.2365C45.4108 16.1409 45.129 16.0419 44.8615 15.9396L45.0791 17.6205C45.3645 17.7285 45.6551 17.822 45.9498 17.9004C46.2172 17.9716 46.4881 18.0283 46.7615 18.0702C47.0238 18.1096 47.2862 18.1407 47.5487 18.1636C47.8112 18.1864 48.0762 18.1977 48.3437 18.1975C48.9431 18.2013 49.5411 18.1386 50.1271 18.0107C50.6458 17.9004 51.1396 17.6932 51.5835 17.3995C51.9977 17.1216 52.3327 16.738 52.5548 16.2874C52.7992 15.7537 52.9167 15.1692 52.8978 14.5811C52.9069 14.1429 52.8419 13.7063 52.7055 13.2904C52.5884 12.9481 52.3997 12.6355 52.1522 12.3741Z" fill="#9FDAF5"/>
<path d="M62.1727 16.9414C62.0503 16.9527 61.927 16.934 61.8133 16.8867C61.6996 16.8394 61.5988 16.765 61.5195 16.6697C61.3642 16.3977 61.2998 16.0821 61.3356 15.7698L61.3688 12.2723C61.3725 11.9056 61.3274 11.5401 61.2348 11.1856C61.1536 10.8746 61.0175 10.5811 60.833 10.3194C60.6467 10.0637 60.4102 9.8498 60.1385 9.69122C59.8224 9.50952 59.4809 9.37792 59.1256 9.30099C58.691 9.20584 58.2474 9.16028 57.8029 9.16517C57.4501 9.1649 57.0977 9.18749 56.7478 9.2328C56.4173 9.2752 56.09 9.3405 55.7683 9.42832C55.47 9.51029 55.1765 9.60951 54.8893 9.72546L54.6884 11.1686C54.9674 11.067 55.2328 10.9821 55.4837 10.9139C55.7346 10.8457 55.9776 10.7894 56.212 10.7442C56.4417 10.6997 56.6739 10.6686 56.9071 10.6511C57.1356 10.6341 57.3615 10.6255 57.5849 10.6253C57.9263 10.618 58.2671 10.658 58.5978 10.7442C58.8393 10.8055 59.0613 10.9283 59.2427 11.101C59.4043 11.2688 59.5197 11.4766 59.5776 11.7037C59.649 11.9837 59.6828 12.2721 59.6781 12.5612L59.6761 12.9871L57.7194 13.1215C57.0501 13.1404 56.3906 13.2902 55.7773 13.5626C55.3182 13.7663 54.9219 14.0919 54.6301 14.5049C54.3825 14.8725 54.2512 15.3077 54.2534 15.7528C54.2503 16.1706 54.3511 16.5824 54.5466 16.9501C54.7514 17.3277 55.0595 17.6372 55.4338 17.8412C55.8905 18.0822 56.4009 18.1992 56.9155 18.1808C57.3975 18.192 57.8774 18.1115 58.3302 17.9434C58.7217 17.7881 59.0799 17.5575 59.3851 17.2642C59.5011 17.1517 59.6111 17.033 59.7146 16.9086C59.7471 17.0844 59.8084 17.2535 59.896 17.4088C60.0451 17.6688 60.2745 17.8717 60.5487 17.9861C60.8518 18.1096 61.1764 18.1703 61.503 18.1644C61.6038 18.1644 61.7011 18.1613 61.796 18.1559C61.8892 18.1503 61.9816 18.136 62.0722 18.1132C62.1615 18.0905 62.2425 18.071 62.315 18.0538C62.3807 18.0391 62.445 18.0192 62.5076 17.9943L62.6918 16.8571C62.5994 16.8891 62.5042 16.9119 62.4074 16.925C62.3296 16.9353 62.2512 16.9407 62.1727 16.9414ZM59.3848 16.1773C59.2032 16.3229 59.0068 16.4482 58.7988 16.5511C58.5915 16.6532 58.372 16.7274 58.1458 16.7719C57.9113 16.8176 57.673 16.8402 57.4342 16.8395C57.1615 16.8476 56.8902 16.7954 56.6392 16.6867C56.4348 16.5969 56.2624 16.4459 56.145 16.254C56.029 16.0505 55.9711 15.8183 55.9776 15.5833C55.9614 15.3002 56.038 15.0195 56.1956 14.7851C56.3777 14.5694 56.6247 14.4203 56.8985 14.3606C57.3262 14.2587 57.7652 14.2131 58.2044 14.2251H59.6705L59.6633 15.9102C59.5781 16.007 59.4849 16.0965 59.3848 16.1773Z" fill="#9FDAF5"/>
<path d="M60.448 5.12427H58.64L57.2169 8.16344H58.5231L60.448 5.12427Z" fill="#9FDAF5"/>
<path d="M70.7196 9.69997C70.1187 9.32688 69.4231 9.14091 68.7189 9.16514C68.301 9.16725 67.8849 9.22132 67.4799 9.32615C67.0423 9.43915 66.6204 9.60752 66.2242 9.8273C66.1455 9.87059 66.0677 9.9187 65.9895 9.96737V9.1821L64.2821 9.45378V21.5762H65.9895V17.775C66.001 17.7798 66.0116 17.7852 66.0233 17.7903C66.3327 17.9204 66.6557 18.0144 66.986 18.0704C67.3761 18.1357 67.771 18.1669 68.1664 18.1638C68.9202 18.177 69.6634 17.9833 70.3175 17.6032C70.96 17.2171 71.4822 16.6553 71.8244 15.9821C72.2195 15.1793 72.4122 14.2896 72.385 13.3928C72.4008 12.6345 72.2553 11.8817 71.9584 11.1856C71.6965 10.5789 71.266 10.0627 70.7196 9.69997ZM70.276 15.3793C70.0748 15.8302 69.7378 16.2046 69.3133 16.4487C68.8414 16.6994 68.3138 16.8223 67.7813 16.8055C67.5263 16.8057 67.2715 16.7857 67.0195 16.7458C66.755 16.7031 66.4946 16.6379 66.241 16.5508C66.1606 16.5225 66.0735 16.4903 65.9898 16.4592V11.101C66.0121 11.0905 66.035 11.0769 66.057 11.0667C66.3026 10.9535 66.5315 10.8572 66.7436 10.7778C66.9444 10.7017 67.1518 10.6449 67.363 10.608C67.551 10.5752 67.7412 10.5582 67.932 10.5571C68.4482 10.5397 68.9606 10.6535 69.4224 10.8882C69.826 11.1111 70.142 11.4675 70.3178 11.8981C70.5308 12.4491 70.6306 13.0384 70.6111 13.6299C70.6289 14.2311 70.5144 14.8287 70.276 15.3793Z" fill="#9FDAF5"/>
<path d="M86.0305 9.52172C85.574 9.27035 85.0595 9.14725 84.5403 9.16517C84.0897 9.16394 83.6423 9.24146 83.2176 9.39436C82.7864 9.551 82.3802 9.77118 82.0121 10.0478C81.8036 10.2046 81.6052 10.3747 81.4181 10.5571C81.2465 10.132 80.9439 9.77467 80.5555 9.5384C80.0934 9.286 79.5733 9.16302 79.0487 9.18213C78.6009 9.18221 78.1565 9.25965 77.7344 9.41108C77.3012 9.56574 76.8923 9.78312 76.5205 10.0565C76.4002 10.1442 76.2836 10.2396 76.1689 10.3395V9.18327L74.4612 9.43795V18.0121H76.1689V11.5521C76.3701 11.4184 76.5798 11.2985 76.7968 11.1933C77.0623 11.0658 77.34 10.9661 77.6255 10.8958C77.8886 10.8302 78.1583 10.7961 78.4292 10.7943C78.678 10.7865 78.9257 10.8298 79.1575 10.9216C79.3493 11.004 79.5187 11.132 79.6514 11.2949C79.7968 11.4842 79.8971 11.7051 79.9444 11.9403C80.0097 12.2441 80.0406 12.5545 80.0365 12.8654V18.0102H81.7443V12.5088C81.7454 12.184 81.7238 11.8596 81.6795 11.5379C81.8732 11.4091 82.0737 11.2912 82.2801 11.1848C82.5411 11.0513 82.8163 10.9488 83.1005 10.8792C83.369 10.8123 83.6444 10.778 83.9208 10.777C84.1668 10.771 84.4115 10.8144 84.6408 10.9046C84.8361 10.9852 85.0086 11.1135 85.143 11.2781C85.2887 11.4673 85.389 11.6881 85.4361 11.9233C85.5014 12.2272 85.5323 12.5377 85.5282 12.8487V18.0102H87.2359V12.4921C87.2574 11.85 87.1551 11.2098 86.9346 10.6075C86.7607 10.1536 86.4426 9.77154 86.0305 9.52172Z" fill="#9FDAF5"/>
<path d="M89.7641 18.0111H91.4719V9.18214L89.7641 9.43683V18.0111Z" fill="#9FDAF5"/>
<path d="M91.6392 6.04932C91.5398 5.87517 91.3987 5.72919 91.229 5.62486C91.0552 5.51722 90.8551 5.46139 90.6515 5.46382C90.4453 5.46206 90.2426 5.51779 90.0654 5.62486C89.8908 5.72851 89.7441 5.87432 89.6385 6.04932C89.5323 6.22566 89.4771 6.42873 89.4794 6.63535C89.4777 6.84447 89.5328 7.05004 89.6385 7.22959C89.7407 7.40734 89.8882 7.55395 90.0654 7.65406C90.2442 7.75613 90.4463 7.80883 90.6515 7.80688C90.8541 7.80951 91.0536 7.75672 91.229 7.65406C91.4014 7.55318 91.5433 7.40639 91.6392 7.22959C91.7399 7.0483 91.7919 6.84339 91.7899 6.63535C91.7924 6.42983 91.7404 6.22745 91.6392 6.04932Z" fill="#9FDAF5"/>
</svg>

<svg xmlns="http://www.w3.org/2000/svg" viewBox="0 0 98 24"><path fill="#114F9D" d="M0 0h98v24H0z"/><path fill="#fff" d="M6.004 18V6h3.937v12H6.004Zm9.294-10.09L17.562 18h-4.309L10.55 6h2.416a2.276 2.276 0 0 1 1.513.55c.42.346.71.826.82 1.36ZM18.154 18V6h3.937v12h-3.937Zm6.91-7.436a2.382 2.382 0 0 1-2.4-2.4 2.303 2.303 0 0 1 .323-1.2 2.412 2.412 0 0 1 3.278-.862c.355.21.652.506.861.862.215.363.326.778.322 1.2a2.4 2.4 0 0 1-1.183 2.079 2.303 2.303 0 0 1-1.2.32ZM28.057 18V6h3.937v12h-3.937Zm8.922-5.442c.011.012.096.15.253.414.158.264.364.602.617 1.014a316.22 316.22 0 0 1 1.597 2.62c.247.411.529.876.845 1.394h-4.326c-.27-.44-.516-.837-.735-1.192-.22-.355-.453-.738-.7-1.149-.249-.41-.494-.81-.737-1.2-.242-.389-.45-.73-.625-1.022a18.04 18.04 0 0 0-.363-.592 1.748 1.748 0 0 1-.287-.845c.017-.29.11-.57.27-.811.068-.113.192-.313.372-.6s.391-.628.633-1.023c.243-.394.488-.797.736-1.208l.7-1.158.736-1.2h4.326l-3.346 5.46a1.079 1.079 0 0 0-.17.54c.012.202.082.396.203.558h.001Z"/><path fill="#9FDAF5" d="M52.152 12.374a3.185 3.185 0 0 0-.837-.62 6.48 6.48 0 0 0-1.013-.416c-.358-.113-.726-.21-1.105-.288a23.71 23.71 0 0 1-.812-.204 3.71 3.71 0 0 1-.67-.246 2.209 2.209 0 0 1-.51-.34 1.222 1.222 0 0 1-.327-.475 1.857 1.857 0 0 1-.109-.671 2.073 2.073 0 0 1 .11-.696c.068-.198.183-.375.334-.518.157-.146.335-.266.528-.356.22-.102.454-.17.694-.204.286-.041.574-.061.863-.06.262.001.525.015.786.043.265.028.528.07.788.127.252.056.5.127.745.213.228.08.45.179.661.296l.234-1.493a4.135 4.135 0 0 0-.745-.306 9.914 9.914 0 0 0-.795-.204 7.845 7.845 0 0 0-.82-.127 8.457 8.457 0 0 0-.854-.043 7.033 7.033 0 0 0-1.758.204c-.49.12-.953.333-1.364.628-.38.276-.685.644-.888 1.07a3.499 3.499 0 0 0-.31 1.528c-.01.407.056.813.193 1.197.12.32.305.613.544.857.236.24.507.44.803.595.315.164.643.3.98.407.352.114.712.21 1.08.289.301.068.58.138.837.212.239.067.471.155.695.263.192.092.37.212.528.357.149.142.266.316.343.51.088.232.131.48.125.73.005.265-.035.529-.117.78-.073.218-.187.42-.335.595a1.615 1.615 0 0 1-.536.407 2.68 2.68 0 0 1-.728.22c-.307.049-.618.071-.929.069-.302-.001-.604-.02-.904-.06-.312-.04-.625-.093-.938-.161a9.286 9.286 0 0 1-.912-.247 16.904 16.904 0 0 1-.846-.296l.218 1.68c.285.108.576.202.87.28.268.072.54.128.813.17.262.04.524.07.787.094.262.022.527.034.795.034.6.003 1.197-.06 1.783-.187a4.236 4.236 0 0 0 1.456-.611c.415-.278.75-.662.972-1.113a3.806 3.806 0 0 0 .343-1.706 3.884 3.884 0 0 0-.193-1.29 2.518 2.518 0 0 0-.553-.917ZM62.173 16.941a.755.755 0 0 1-.654-.271 1.477 1.477 0 0 1-.183-.9l.033-3.498a4.135 4.135 0 0 0-.134-1.086 2.677 2.677 0 0 0-.402-.867 2.285 2.285 0 0 0-.694-.628 3.532 3.532 0 0 0-1.013-.39 5.881 5.881 0 0 0-1.323-.136c-.353 0-.705.022-1.055.068-.33.042-.658.107-.98.195a8.035 8.035 0 0 0-.879.297l-.2 1.444a9.997 9.997 0 0 1 1.523-.425c.23-.044.462-.075.695-.093.229-.017.455-.025.678-.026.341-.007.682.033 1.013.12.241.06.463.183.645.356.161.168.277.376.335.603.071.28.105.568.1.857l-.002.426-1.957.134a5.141 5.141 0 0 0-1.942.442c-.459.203-.855.529-1.147.942a2.215 2.215 0 0 0-.377 1.248c-.003.418.098.83.294 1.197.204.378.513.687.887.891.457.241.967.358 1.482.34a3.81 3.81 0 0 0 1.414-.238c.392-.155.75-.386 1.055-.679.116-.112.226-.231.33-.355.032.175.093.345.181.5.15.26.379.463.653.577.303.124.627.184.954.178.1 0 .198-.003.293-.008a1.5 1.5 0 0 0 .276-.043l.243-.06c.066-.014.13-.034.193-.059l.184-1.137a1.472 1.472 0 0 1-.285.068c-.077.01-.156.016-.234.016Zm-2.788-.764c-.182.146-.378.271-.586.374a2.624 2.624 0 0 1-.653.22 3.664 3.664 0 0 1-.712.069 1.861 1.861 0 0 1-.795-.153 1.097 1.097 0 0 1-.494-.433 1.283 1.283 0 0 1-.167-.67c-.017-.284.06-.564.218-.799.182-.216.429-.365.703-.424a5.04 5.04 0 0 1 1.305-.136h1.466l-.007 1.685a2.275 2.275 0 0 1-.278.267ZM60.448 5.124H58.64l-1.423 3.04h1.306l1.925-3.04ZM70.72 9.7a3.56 3.56 0 0 0-2.001-.535 5.046 5.046 0 0 0-1.24.161 5.342 5.342 0 0 0-1.49.641v-.785l-1.707.272v12.122h1.708v-3.801l.033.015c.31.13.633.224.963.28.39.066.785.097 1.18.094a4.136 4.136 0 0 0 2.151-.56 4.009 4.009 0 0 0 1.507-1.622 5.489 5.489 0 0 0 .561-2.59 5.344 5.344 0 0 0-.427-2.206A3.398 3.398 0 0 0 70.72 9.7Zm-.444 5.68c-.201.45-.538.825-.963 1.069-.472.25-1 .373-1.532.356a4.705 4.705 0 0 1-1.54-.255c-.08-.027-.168-.06-.251-.09V11.1c.022-.01.045-.024.067-.034.246-.114.474-.21.687-.29a3.398 3.398 0 0 1 1.188-.22 3.061 3.061 0 0 1 1.49.331c.404.223.72.58.896 1.01.213.551.313 1.14.293 1.732a4.099 4.099 0 0 1-.335 1.75ZM86.03 9.522a2.882 2.882 0 0 0-1.49-.357 3.873 3.873 0 0 0-1.322.23 4.65 4.65 0 0 0-1.206.653 6.123 6.123 0 0 0-.594.51 2.12 2.12 0 0 0-.863-1.02 2.92 2.92 0 0 0-1.506-.356c-.448 0-.893.078-1.315.23a4.74 4.74 0 0 0-1.565.927V9.183l-1.708.255v8.574h1.708v-6.46c.201-.134.41-.253.628-.359.265-.127.543-.227.829-.297.263-.066.532-.1.803-.102.249-.008.497.036.728.128.192.082.362.21.494.373.146.19.246.41.293.645.066.304.097.615.093.925v5.145h1.707V12.51c.001-.325-.02-.65-.064-.971a6.29 6.29 0 0 1 .6-.353c.261-.134.536-.236.82-.306.269-.067.544-.101.82-.102.247-.006.492.037.72.128.196.08.369.209.503.373.146.19.246.41.293.645.065.304.096.615.092.926v5.161h1.708v-5.518a4.997 4.997 0 0 0-.301-1.885 2.18 2.18 0 0 0-.904-1.085ZM89.764 18.011h1.708V9.182l-1.708.255v8.574ZM91.64 6.05a1.19 1.19 0 0 0-.411-.425 1.072 1.072 0 0 0-.578-.161 1.115 1.115 0 0 0-.586.16c-.174.105-.32.25-.427.425-.106.177-.16.38-.159.586-.001.21.054.415.16.595a1.16 1.16 0 0 0 1.013.577 1.114 1.114 0 0 0 .987-.577 1.2 1.2 0 0 0 .15-.595 1.158 1.158 0 0 0-.15-.586Z"/></svg>
